X:352
T:James McNicoll
R:Strathspey
B:The Athole Collection
M:C|
L:1/8
K:C
e/d/|c>GE>G c>de>d|c>GE>c D>d de/d/|c>GE>G c>de>c|f>dB>g e<cc:|
|:e/f/|g<ca<c G<c Ea|g>ca>c B<d de/f/|1 g>ca>c G>cE>c|A>FD>g e<c ce/f/:|2
g>cd>g e>cB>d|c>GE>g e<cc||

